X: 20952
T: MY OWN DEAR SOMEBODY
Q: "Larghetto"
%R: air, waltz, jig
B: "Edinburgh Repository of Music" v.2 p.95 #2
F: http://digital.nls.uk/special-collections-of-printed-music/pageturner.cfm?id=87776133
Z: 2015 John Chambers <jc:trillian.mit.edu>
M: 6/8
L: 1/8
K: G
d |\
e2e e>fg | d2d d2c | B2B B>^cd | A2A A2d |\
e2e e>fg | d2d d2c | B>cd g2B | {B}AGA G2 |]
B |\
c3 A3 | B2d B2B | c3 A3 | B2d B2d |\
e2e e>fg | d2d Hd2c | B>cd g2b | aba g2 |]
